build/system/SmallArrowRightOutline.svg

<svg xmlns="http://www.w3.org/2000/svg" fill="none" viewBox="0 0 24 24" focusable="false"><path d="M0 0H24V24H0z"/><path fill="#74767B" fill-rule="evenodd" d="M9.99632 16.2111C9.81632 16.2111 9.64632 16.1411 9.51632 16.0011C9.27632 15.7311 9.29632 15.3211 9.55632 15.0811L13.0495 11.9349L9.56022 8.91705C9.29022 8.67705 9.28022 8.26705 9.52022 7.99705C9.76022 7.73705 10.1702 7.71705 10.4402 7.95705L14.4195 11.4149C14.7295 11.6949 14.7295 12.1749 14.4195 12.4549L10.4363 16.0411C10.3063 16.1611 10.1563 16.2111 9.99632 16.2111Z"/></svg>

<svg xmlns="http://www.w3.org/2000/svg" fill="none" viewBox="0 0 24 24" focusable="false"><path fill="#74767B" fill-rule="evenodd" d="M9.99 16.21c-.18 0-.35-.07-.48-.21a.66.66 0 0 1 .04-.92l3.49-3.15-3.48-3.02a.65.65 0 0 1-.04-.92c.24-.26.65-.28.92-.04l3.97 3.46c.31.28.31.76 0 1.04l-3.98 3.59c-.13.12-.28.17-.44.17"/></svg>
